Adwaita++/actions/22/edit-paste.svg

<svg fill="none" height="22" viewBox="0 0 22 22" width="22" xmlns="http://www.w3.org/2000/svg">
  <path clip-rule="evenodd" d="m13.0642 3h-4.00295c-.29271 0-.53.23732-.53.53003v2.93994c0 .29271.23729.53003.53.53003h4.00295c.2928 0 .5301-.23732.5301-.53003v-2.93994c0-.29271-.2373-.53003-.5301-.53003zm-5.50195 5.03003v6.96867h4.99995l1.9908-1.987-.022-4.98167zm0 0h-.0001l.00001-.00006zm-2.531-3.71753c.35327-.2765.70691-.3125 1-.3125l.0001-.00043h1.4375v2h-.96875v11.00003h9.0312v-11.00003h-1.0312v-2h1.6562c.2999 0 .6814.10459.9688.375.2873.27041.4062.66667.4062 1v12.09403c0 .4142-.1662.8465-.4687 1.125-.3026.2783-.6997.4062-1.0625.4062h-9.87505-.09375v-.0313c-.38466.011-.80838-.0896-1.0938-.375-.30981-.3098-.4375-.741-.4375-1.125v-12.031c0-.35625.17798-.84853.53125-1.125z" fill="#444" fill-rule="evenodd"/>
</svg>

<svg xmlns="http://www.w3.org/2000/svg" fill="none" width="22" height="22" viewBox="0 0 22 22">
 <path fill="#444" fill-rule="evenodd" d="M13.0642 3H9.06125C8.76854 3 8.53125 3.23732 8.53125 3.53003V6.46997C8.53125 6.76268 8.76854 7 9.06125 7H13.0642C13.357 7 13.5943 6.76268 13.5943 6.46997V3.53003C13.5943 3.23732 13.357 3 13.0642 3ZM7.56225 8.03003V14.9987H12.5622L14.553 13.0117L14.531 8.03003H7.56225ZM7.56225 8.03003H7.56215L7.56216 8.02997L7.56225 8.03003ZM5.03125 4.3125C5.38452 4.036 5.73816 4 6.03125 4L6.03135 3.99957H7.46885V5.99957H6.5001V16.9996H15.5313V5.99957H14.5001V3.99957H16.1563C16.4562 3.99957 16.8377 4.10416 17.1251 4.37457C17.4124 4.64498 17.5313 5.04124 17.5313 5.37457V17.4686C17.5313 17.8828 17.3651 18.3151 17.0626 18.5936C16.76 18.8719 16.3629 18.9998 16.0001 18.9998H6.12505H6.0313V18.9685C5.64664 18.9795 5.22292 18.8789 4.9375 18.5935C4.62769 18.2837 4.5 17.8525 4.5 17.4685V5.4375C4.5 5.08125 4.67798 4.58897 5.03125 4.3125Z" clip-rule="evenodd"/>
</svg>
